X: 13940
T: Fraher's
R: jig
M: 6/8
K: Dmixolydian
|:Ac/A/A GEA|D3 FED|A2D GEA|D3 DEG|
A2d GEA|D3 FED|A/B/cA GEA|D3 D3:|
|:A/B/cA d2A|d2A AGE|GAB c2A|BGE E2D|
Add def|dcA AGE|A/B/cA GEA|D3 D3:|

